assets/img/braze_icons/bar-chart-10.svg

<svg fill="none" height="24" viewBox="0 0 24 24" width="24" xmlns="http://www.w3.org/2000/svg"><g clip-rule="evenodd" fill="#801ed7" fill-rule="evenodd"><path d="m3.56811 6c.01062 0 .02125.00001.0319.00001h.79999c.01065 0 .02128-.00001.0319-.00001.25238-.00003.49818-.00006.70634.01695.22859.01868.49832.06274.76975.20104.37632.19175.68228.49771.87403.87403.1383.27143.18236.54116.20104.76976.01701.20815.01698.45395.01695.70633v.0319 10.83189c.00003.2524.00006.4982-.01695.7063-.01868.2286-.06274.4984-.20104.7698-.19175.3763-.49771.6823-.87403.874-.27143.1383-.54116.1824-.76976.2011-.20816.017-.45396.0169-.70634.0169h-.86377c-.25238 0-.49818.0001-.70634-.0169-.2286-.0187-.49833-.0628-.76976-.2011-.37632-.1917-.68228-.4977-.87403-.874-.1383-.2714-.18236-.5412-.20104-.7698-.017007-.2081-.016977-.4539-.01695-.7063l.00001-10.83189c0-.01065-.00001-.02128-.00001-.0319-.000027-.25238-.000057-.49818.01695-.70633.01868-.2286.06274-.49833.20104-.76976.19175-.37632.49771-.68228.87403-.87403.27143-.1383.54116-.18236.76976-.20104.20815-.01701.45394-.01698.70633-.01695z"/><path d="m11.5681 2c.0106 0 .0213.00001.0319.00001h.8c.0106 0 .0213-.00001.0319-.00001.2524-.00003.4982-.00006.7063.01695.2286.01868.4984.06274.7698.20104.3763.19175.6823.49771.874.87403.1383.27143.1824.54116.2011.76976.017.20815.0169.45395.0169.70633v.0319 14.83189c0 .2524.0001.4982-.0169.7063-.0187.2286-.0628.4984-.2011.7698-.1917.3763-.4977.6823-.874.874-.2714.1383-.5412.1824-.7698.2011-.2081.017-.4539.0169-.7063.0169h-.8638c-.2524 0-.4982.0001-.7063-.0169-.2286-.0187-.4984-.0628-.7698-.2011-.3763-.1917-.68226-.4977-.87401-.874-.1383-.2714-.18236-.5412-.20104-.7698-.01701-.2081-.01698-.4539-.01695-.7063v-14.83189c0-.01065 0-.02128 0-.0319-.00003-.25239-.00006-.49818.01695-.70633.01868-.2286.06274-.49833.20104-.76976.19175-.37632.49771-.68228.87401-.87403.2714-.1383.5412-.18236.7698-.20104.2081-.01701.4539-.01698.7063-.01695z"/><path d="m19.5681 10h.0319.8.0319c.2524-.00003.4982-.00006.7063.017.2286.0186.4984.0627.7698.201.3763.1917.6823.4977.874.874.1383.2714.1824.5412.2011.7698.017.2081.0169.4539.0169.7063v.0319 6.8319c0 .2524.0001.4982-.0169.7063-.0187.2286-.0628.4984-.2011.7698-.1917.3763-.4977.6823-.874.874-.2714.1383-.5412.1824-.7698.2011-.2081.017-.4539.0169-.7063.0169h-.8638c-.2524 0-.4982.0001-.7063-.0169-.2286-.0187-.4984-.0628-.7698-.2011-.3763-.1917-.6823-.4977-.874-.874-.1383-.2714-.1824-.5412-.201-.7698-.0171-.2081-.017-.4539-.017-.7063v-6.8319c0-.0106 0-.0213 0-.0319 0-.2524-.0001-.4982.017-.7063.0186-.2286.0627-.4984.201-.7698.1917-.3763.4977-.6823.874-.874.2714-.1383.5412-.1824.7698-.201.2081-.01706.4539-.01703.7063-.017z"/></g></svg>

<svg width="24" height="24" viewBox="0 0 24 24" fill="none" xmlns="http://www.w3.org/2000/svg">
<path fill-rule="evenodd" clip-rule="evenodd" d="M3.56811 6C3.57873 6 3.58936 6.00001 3.60001 6.00001H4.4C4.41065 6.00001 4.42128 6 4.4319 6C4.68428 5.99997 4.93008 5.99994 5.13824 6.01695C5.36683 6.03563 5.63656 6.07969 5.90799 6.21799C6.28431 6.40974 6.59027 6.7157 6.78202 7.09202C6.92032 7.36345 6.96438 7.63318 6.98306 7.86178C7.00007 8.06993 7.00004 8.31573 7.00001 8.56811C7.00001 8.57873 7.00001 8.58936 7.00001 8.60001L7.00001 19.4319C7.00004 19.6843 7.00007 19.9301 6.98306 20.1382C6.96438 20.3668 6.92032 20.6366 6.78202 20.908C6.59027 21.2843 6.28431 21.5903 5.90799 21.782C5.63656 21.9203 5.36683 21.9644 5.13823 21.9831C4.93007 22.0001 4.68427 22 4.43189 22H3.56812C3.31574 22 3.06994 22.0001 2.86178 21.9831C2.63318 21.9644 2.36345 21.9203 2.09202 21.782C1.7157 21.5903 1.40974 21.2843 1.21799 20.908C1.07969 20.6366 1.03563 20.3668 1.01695 20.1382C0.999943 19.9301 0.999973 19.6843 1 19.4319L1.00001 8.60001C1.00001 8.58936 1 8.57873 1 8.56811C0.999973 8.31573 0.999943 8.06993 1.01695 7.86178C1.03563 7.63318 1.07969 7.36345 1.21799 7.09202C1.40974 6.7157 1.7157 6.40974 2.09202 6.21799C2.36345 6.07969 2.63318 6.03563 2.86178 6.01695C3.06993 5.99994 3.31572 5.99997 3.56811 6Z" fill="#801ED7"/>
<path fill-rule="evenodd" clip-rule="evenodd" d="M11.5681 2C11.5787 2 11.5894 2.00001 11.6 2.00001L12.4 2.00001C12.4106 2.00001 12.4213 2 12.4319 2C12.6843 1.99997 12.9301 1.99994 13.1382 2.01695C13.3668 2.03563 13.6366 2.07969 13.908 2.21799C14.2843 2.40974 14.5903 2.7157 14.782 3.09202C14.9203 3.36345 14.9644 3.63318 14.9831 3.86178C15.0001 4.06993 15 4.31573 15 4.56811C15 4.57873 15 4.58936 15 4.60001L15 19.4319C15 19.6843 15.0001 19.9301 14.9831 20.1382C14.9644 20.3668 14.9203 20.6366 14.782 20.908C14.5903 21.2843 14.2843 21.5903 13.908 21.782C13.6366 21.9203 13.3668 21.9644 13.1382 21.9831C12.9301 22.0001 12.6843 22 12.4319 22H11.5681C11.3157 22 11.0699 22.0001 10.8618 21.9831C10.6332 21.9644 10.3634 21.9203 10.092 21.782C9.7157 21.5903 9.40974 21.2843 9.21799 20.908C9.07969 20.6366 9.03563 20.3668 9.01695 20.1382C8.99994 19.9301 8.99997 19.6843 9 19.4319L9 4.60001C9 4.58936 9 4.57873 9 4.56811C8.99997 4.31572 8.99994 4.06993 9.01695 3.86178C9.03563 3.63318 9.07969 3.36345 9.21799 3.09202C9.40974 2.7157 9.7157 2.40974 10.092 2.21799C10.3634 2.07969 10.6332 2.03563 10.8618 2.01695C11.0699 1.99994 11.3157 1.99997 11.5681 2Z" fill="#801ED7"/>
<path fill-rule="evenodd" clip-rule="evenodd" d="M19.5681 10C19.5787 10 19.5894 10 19.6 10H20.4C20.4106 10 20.4213 10 20.4319 10C20.6843 9.99997 20.9301 9.99994 21.1382 10.017C21.3668 10.0356 21.6366 10.0797 21.908 10.218C22.2843 10.4097 22.5903 10.7157 22.782 11.092C22.9203 11.3634 22.9644 11.6332 22.9831 11.8618C23.0001 12.0699 23 12.3157 23 12.5681C23 12.5787 23 12.5894 23 12.6L23 19.4319C23 19.6843 23.0001 19.9301 22.9831 20.1382C22.9644 20.3668 22.9203 20.6366 22.782 20.908C22.5903 21.2843 22.2843 21.5903 21.908 21.782C21.6366 21.9203 21.3668 21.9644 21.1382 21.9831C20.9301 22.0001 20.6843 22 20.4319 22H19.5681C19.3157 22 19.0699 22.0001 18.8618 21.9831C18.6332 21.9644 18.3634 21.9203 18.092 21.782C17.7157 21.5903 17.4097 21.2843 17.218 20.908C17.0797 20.6366 17.0356 20.3668 17.017 20.1382C16.9999 19.9301 17 19.6843 17 19.4319L17 12.6C17 12.5894 17 12.5787 17 12.5681C17 12.3157 16.9999 12.0699 17.017 11.8618C17.0356 11.6332 17.0797 11.3634 17.218 11.092C17.4097 10.7157 17.7157 10.4097 18.092 10.218C18.3634 10.0797 18.6332 10.0356 18.8618 10.017C19.0699 9.99994 19.3157 9.99997 19.5681 10Z" fill="#801ED7"/>
</svg>
